img/svg/logo-footer.svg

<svg width="405" height="40" viewBox="0 0 405 40" fill="none" xmlns="http://www.w3.org/2000/svg">
<path d="M212.33 10.05H217.29V8.75H212.33V7.42H217.69V6H210.56V13H217.79V11.58H212.33V10.05ZM221.386 6H219.626V13H226.346V11.48H221.386V6ZM229.818 10.05H234.778V8.75H229.818V7.42H235.178V6H228.048V13H235.278V11.58H229.818V10.05ZM237.025 11.06C237.025 12.39 237.645 13 238.965 13H243.435C244.755 13 245.375 12.39 245.375 11.06V9.1H241.285V10.4H243.665V10.8C243.665 11.4 243.455 11.62 242.845 11.62H239.615C239.005 11.62 238.795 11.4 238.795 10.8V8.24C238.795 7.64 239.005 7.42 239.615 7.42H242.785C243.395 7.42 243.605 7.64 243.605 8.24V8.41H245.375V7.94C245.375 6.61 244.755 6 243.435 6H238.965C237.645 6 237.025 6.61 237.025 7.94V11.06ZM255.93 13L252.19 6H250.22L246.48 13H248.4L249.05 11.69H253.27L253.92 13H255.93ZM251.16 7.42L252.61 10.36H249.71L251.16 7.42ZM263.985 10.73L258.945 6H257.445V13H259.145V8.2L264.265 13H265.685V6H263.985V10.73ZM267.38 6V7.52H270.4V13H272.16V7.52H275.18V6H267.38ZM283.344 8.83C282.934 8.83 282.784 8.68 282.784 8.27V7.8C282.784 7.37 282.934 7.24 283.344 7.24H286.134C286.564 7.24 286.694 7.37 286.694 7.8V8.02H288.344V7.5C288.344 6.46 287.874 6 286.844 6H282.574C281.544 6 281.074 6.46 281.074 7.5V8.1C281.074 8.75 281.284 9.16 281.704 9.35C281.084 9.47 280.774 9.92 280.774 10.69V11.5C280.774 12.54 281.244 13 282.274 13H287.144C288.174 13 288.644 12.54 288.644 11.5V9.96H289.724V8.83H283.344ZM286.994 11.2C286.994 11.63 286.864 11.76 286.434 11.76H283.044C282.634 11.76 282.484 11.63 282.484 11.2V10.52C282.484 10.09 282.634 9.96 283.044 9.96H286.994V11.2ZM302.453 6H295.423V13H297.193V10.42H302.053V9H297.193V7.5H302.453V6ZM310.198 13C311.518 13 312.138 12.39 312.138 11.06V6H310.378V10.7C310.378 11.3 310.158 11.52 309.558 11.52H306.678C306.068 11.52 305.858 11.3 305.858 10.7V6H304.098V11.06C304.098 12.39 304.718 13 306.038 13H310.198ZM320.731 10.73L315.691 6H314.191V13H315.891V8.2L321.011 13H322.431V6H320.731V10.73ZM330.386 13C331.946 13 332.786 12.17 332.786 10.6V8.4C332.786 6.83 331.946 6 330.386 6H324.546V13H330.386ZM326.306 7.46H329.986C330.676 7.46 331.026 7.81 331.026 8.5V10.5C331.026 11.19 330.676 11.54 329.986 11.54H326.306V7.46ZM343.157 13L339.417 6H337.447L333.707 13H335.627L336.277 11.69H340.497L341.147 13H343.157ZM338.387 7.42L339.837 10.36H336.937L338.387 7.42ZM349.371 10.11L346.221 6H344.671V13H346.331V8.52L348.861 11.78H349.801L352.331 8.52V13H353.991V6H352.511L349.371 10.11ZM357.881 10.05H362.841V8.75H357.881V7.42H363.241V6H356.111V13H363.341V11.58H357.881V10.05ZM371.717 10.73L366.677 6H365.177V13H366.877V8.2L371.997 13H373.417V6H371.717V10.73ZM375.113 6V7.52H378.133V13H379.893V7.52H382.913V6H375.113ZM391.721 13L387.981 6H386.011L382.271 13H384.191L384.841 11.69H389.061L389.711 13H391.721ZM386.951 7.42L388.401 10.36H385.501L386.951 7.42ZM394.996 6H393.236V13H399.956V11.48H394.996V6ZM210.61 33H212.39V26H210.61V33ZM221.098 30.73L216.058 26H214.558V33H216.258V28.2L221.378 33H222.798V26H221.098V30.73ZM230.754 33C232.314 33 233.154 32.17 233.154 30.6V28.4C233.154 26.83 232.314 26 230.754 26H224.914V33H230.754ZM226.674 27.46H230.354C231.044 27.46 231.394 27.81 231.394 28.5V30.5C231.394 31.19 231.044 31.54 230.354 31.54H226.674V27.46ZM241.221 33C242.541 33 243.161 32.39 243.161 31.06V26H241.401V30.7C241.401 31.3 241.181 31.52 240.581 31.52H237.701C237.091 31.52 236.881 31.3 236.881 30.7V26H235.121V31.06C235.121 32.39 235.741 33 237.061 33H241.221ZM245.124 31.5C245.124 32.54 245.594 33 246.624 33H251.774C252.804 33 253.274 32.54 253.274 31.5V30.36C253.274 29.33 252.824 28.93 251.774 28.86L247.554 28.58C247.124 28.55 246.994 28.43 246.994 28.02V27.89C246.994 27.48 247.144 27.33 247.554 27.33H250.864C251.274 27.33 251.424 27.48 251.424 27.89V28.04H253.134V27.5C253.134 26.46 252.664 26 251.634 26H246.724C245.694 26 245.224 26.46 245.224 27.5V28.46C245.224 29.47 245.674 29.88 246.724 29.96L250.944 30.24C251.374 30.28 251.504 30.39 251.504 30.8V31.11C251.504 31.52 251.354 31.67 250.944 31.67H247.394C246.984 31.67 246.834 31.52 246.834 31.11V30.84H245.124V31.5ZM254.769 26V27.52H257.789V33H259.549V27.52H262.569V26H254.769ZM270.445 30.44C271.605 30.41 272.105 29.9 272.105 28.7V27.74C272.105 26.5 271.595 26 270.365 26H264.265V33H266.025V30.56H268.565L270.395 33H272.405L270.445 30.44ZM269.655 27.28C270.185 27.28 270.345 27.45 270.345 27.98V28.62C270.345 29.15 270.185 29.32 269.655 29.32H266.025V27.28H269.655ZM274.212 33H275.992V26H274.212V33ZM287.05 33L283.31 26H281.34L277.6 33H279.52L280.17 31.69H284.39L285.04 33H287.05ZM282.28 27.42L283.73 30.36H280.83L282.28 27.42ZM290.324 26H288.564V33H295.284V31.48H290.324V26ZM300.894 31.5C300.894 32.54 301.364 33 302.394 33H307.544C308.574 33 309.044 32.54 309.044 31.5V30.36C309.044 29.33 308.594 28.93 307.544 28.86L303.324 28.58C302.894 28.55 302.764 28.43 302.764 28.02V27.89C302.764 27.48 302.914 27.33 303.324 27.33H306.634C307.044 27.33 307.194 27.48 307.194 27.89V28.04H308.904V27.5C308.904 26.46 308.434 26 307.404 26H302.494C301.464 26 300.994 26.46 300.994 27.5V28.46C300.994 29.47 301.444 29.88 302.494 29.96L306.714 30.24C307.144 30.28 307.274 30.39 307.274 30.8V31.11C307.274 31.52 307.124 31.67 306.714 31.67H303.164C302.754 31.67 302.604 31.52 302.604 31.11V30.84H300.894V31.5ZM317.386 33C318.706 33 319.326 32.39 319.326 31.06V27.94C319.326 26.61 318.706 26 317.386 26H312.926C311.606 26 310.986 26.61 310.986 27.94V31.06C310.986 32.39 311.606 33 312.926 33H317.386ZM313.566 31.54C312.966 31.54 312.746 31.32 312.746 30.72V28.28C312.746 27.68 312.966 27.46 313.566 27.46H316.746C317.356 27.46 317.566 27.68 317.566 28.28V30.72C317.566 31.32 317.356 31.54 316.746 31.54H313.566ZM323.113 26H321.353V33H328.073V31.48H323.113V26ZM335.737 33C337.057 33 337.677 32.39 337.677 31.06V26H335.917V30.7C335.917 31.3 335.697 31.52 335.097 31.52H332.217C331.607 31.52 331.397 31.3 331.397 30.7V26H329.637V31.06C329.637 32.39 330.257 33 331.577 33H335.737ZM339.31 26V27.52H342.33V33H344.09V27.52H347.11V26H339.31ZM348.856 33H350.636V26H348.856V33ZM359.114 33C360.434 33 361.054 32.39 361.054 31.06V27.94C361.054 26.61 360.434 26 359.114 26H354.654C353.334 26 352.714 26.61 352.714 27.94V31.06C352.714 32.39 353.334 33 354.654 33H359.114ZM355.294 31.54C354.694 31.54 354.474 31.32 354.474 30.72V28.28C354.474 27.68 354.694 27.46 355.294 27.46H358.474C359.084 27.46 359.294 27.68 359.294 28.28V30.72C359.294 31.32 359.084 31.54 358.474 31.54H355.294ZM369.621 30.73L364.581 26H363.081V33H364.781V28.2L369.901 33H371.321V26H369.621V30.73ZM373.347 31.5C373.347 32.54 373.817 33 374.847 33H379.997C381.027 33 381.497 32.54 381.497 31.5V30.36C381.497 29.33 381.047 28.93 379.997 28.86L375.777 28.58C375.347 28.55 375.217 28.43 375.217 28.02V27.89C375.217 27.48 375.367 27.33 375.777 27.33H379.087C379.497 27.33 379.647 27.48 379.647 27.89V28.04H381.357V27.5C381.357 26.46 380.887 26 379.857 26H374.947C373.917 26 373.447 26.46 373.447 27.5V28.46C373.447 29.47 373.897 29.88 374.947 29.96L379.167 30.24C379.597 30.28 379.727 30.39 379.727 30.8V31.11C379.727 31.52 379.577 31.67 379.167 31.67H375.617C375.207 31.67 375.057 31.52 375.057 31.11V30.84H373.347V31.5Z" fill="#737373"/>
<path d="M33.1992 5V12.5411H44.3984V32.6377H53.0915V12.5411H64.2906V5H33.1992Z" fill="#737373"/>
<path d="M96.3359 23.0829C100.369 22.6486 102.131 20.5561 102.131 15.9366V12.1858C102.131 7.13205 100.017 5 95.0045 5H70.57V32.6377H79.2631V23.7541H87.1338L93.3991 32.6377H103.306L96.3359 23.0829ZM91.3237 11.2777C92.9292 11.2777 93.4382 11.791 93.4382 13.4097V15.5418C93.4382 17.1606 92.9292 17.6738 91.3237 17.6738H79.2631V11.2777H91.3237Z" fill="#737373"/>
<path d="M109.785 32.6377H118.635V5H109.785V32.6377Z" fill="#737373"/>
<path d="M151.766 32.6377C157.13 32.6377 159.675 30.1503 159.675 24.6622V12.9754C159.675 7.48739 157.13 5 151.766 5H134.066C128.701 5 126.156 7.48739 126.156 12.9754V24.6622C126.156 30.1503 128.701 32.6377 134.066 32.6377H151.766ZM137.355 25.4124C135.476 25.4124 134.849 24.7807 134.849 22.8855V14.7521C134.849 12.857 135.476 12.2253 137.355 12.2253H148.476C150.317 12.2253 150.982 12.857 150.982 14.7521V22.8855C150.982 24.7807 150.317 25.4124 148.476 25.4124H137.355Z" fill="#737373"/>
<path d="M175.674 5H166.981V32.6377H194V25.0965H175.674V5Z" fill="#737373"/>
<path d="M14.6474 5.00995C14.8638 5.03981 15.0803 5.07962 15.2967 5.10947C16.7707 5.30851 18.121 5.82601 19.3166 6.69184C20.9349 7.86617 21.9553 9.43858 22.5325 11.2996C22.7902 12.1256 22.9242 12.9616 23.0067 13.8175C23.0788 14.6136 23.0891 15.4098 23.0273 16.2159C22.9036 17.7385 22.5841 19.2214 22.0584 20.6545C21.3575 22.5354 20.3989 24.277 19.1826 25.8992C19.0899 26.0186 19.028 26.0385 18.8734 25.9788C17.8427 25.5907 16.8429 25.1528 15.9564 24.5059C15.709 24.3267 15.4823 24.1178 15.2452 23.9386C15.1215 23.8491 15.1215 23.7694 15.1937 23.6401C15.9873 22.3065 16.6161 20.9033 17.1108 19.4403C17.5025 18.2958 17.7911 17.1414 17.987 15.9571C18.1519 14.9122 18.2447 13.8672 18.2137 12.8123C18.1828 11.3096 17.9457 9.85657 17.3788 8.46329C16.7707 7.00035 15.8224 5.82601 14.3588 5.07962C14.3279 5.05971 14.3072 5.02986 14.2866 5C14.4103 5.00995 14.5237 5.00995 14.6474 5.00995Z" fill="#737373"/>
<path d="M10.5657 19.3506C10.9471 19.9676 11.2975 20.5846 11.6995 21.1618C13.3384 23.4906 15.4514 25.2919 18.1416 26.4264C19.1311 26.8444 20.1619 27.1131 21.2338 27.2326C22.079 27.3321 22.9243 27.3221 23.7798 27.2823C25.0579 27.2226 26.2432 26.8544 27.3358 26.2274C27.3461 26.2175 27.3667 26.2175 27.4183 26.2075C27.3358 26.4663 27.2534 26.7151 27.1709 26.9539C26.7586 28.0387 26.202 29.0438 25.3877 29.9096C24.3158 31.0541 23.0067 31.7707 21.4503 32.0891C20.4711 32.2882 19.4816 32.328 18.4921 32.2085C16.0905 31.9199 13.9362 31.0442 12.0603 29.5613C10.4832 28.3173 9.23606 26.8046 8.16409 25.1426C7.54565 24.1773 6.99936 23.1821 6.5046 22.157C6.48399 22.1172 6.48399 22.0277 6.51491 21.9978C7.4735 21.132 8.50423 20.3458 9.66897 19.7487C9.96788 19.6093 10.2771 19.48 10.5657 19.3506Z" fill="#737373"/>
<path d="M1.38184 28.6562C1.15508 28.2083 0.907702 27.7704 0.701554 27.3226C0.144956 26.0786 -0.0508843 24.7749 0.01096 23.4314C0.124341 21.0529 0.938625 18.9132 2.4435 17.0223C3.89684 15.1912 5.7934 13.9571 8.04041 13.2008C9.26699 12.7927 10.5245 12.5141 11.8026 12.3449C12.9467 12.1956 14.1012 12.1359 15.2556 12.1857C15.9771 12.2255 16.6986 12.325 17.4201 12.4046C17.5232 12.4146 17.5438 12.4643 17.5335 12.5539C17.4717 13.2704 17.451 13.987 17.3583 14.7035C17.2655 15.4201 17.1212 16.1366 17.0078 16.8531C16.9872 16.9726 16.9357 16.9925 16.8223 16.9925C14.2351 17.0024 11.8232 17.6592 9.5659 18.8435C8.24656 19.5402 7.03029 20.3861 5.90678 21.3514C4.80389 22.3068 3.81438 23.3617 2.96918 24.546C2.20643 25.6009 1.69106 26.7653 1.50553 28.0391C1.47461 28.2282 1.4643 28.4273 1.45399 28.6263C1.42307 28.6363 1.40246 28.6462 1.38184 28.6562Z" fill="#737373"/>
<path d="M10.4112 30.5969C10.1122 30.7761 9.82364 30.9751 9.51441 31.1443C8.70013 31.5623 7.824 31.7912 6.90664 31.8608C5.91713 31.9305 4.97916 31.7912 4.10303 31.3234C3.23721 30.8557 2.67031 30.1491 2.30955 29.2634C2.25801 29.144 2.2477 29.0146 2.2477 28.8852C2.2374 27.1436 2.77338 25.5812 3.83504 24.1879C3.84535 24.168 3.87627 24.158 3.90719 24.1282C4.04119 24.7751 4.22672 25.3821 4.49472 25.9593C5.22654 27.5815 6.31912 28.9051 7.91677 29.8008C8.67951 30.2287 9.50411 30.4875 10.4009 30.5571C10.3905 30.5671 10.4008 30.577 10.4112 30.5969Z" fill="#737373"/>
<path d="M7.40146 10.4242C7.38085 9.91668 7.41177 9.41908 7.52515 8.93143C7.72099 8.08552 8.11267 7.33912 8.77234 6.75195C9.59693 6.01551 10.5761 5.54776 11.6996 5.39849C13.122 5.2094 14.3692 5.58757 15.4412 6.50315C15.8329 6.84152 16.1009 7.26946 16.3379 7.71729C16.575 8.17508 16.7915 8.64283 17.0182 9.11057C17.0079 9.12052 16.9873 9.13047 16.977 9.14043C16.7915 9.07076 16.5956 8.99115 16.4101 8.92148C15.5649 8.62292 14.6991 8.43384 13.792 8.36417C12.3181 8.2547 10.8957 8.44379 9.53509 9.01105C8.80327 9.31956 8.1539 9.7475 7.57669 10.2949C7.52515 10.3446 7.49423 10.4043 7.453 10.464C7.43239 10.4441 7.41177 10.4342 7.40146 10.4242Z" fill="#737373"/>
<path d="M25.4082 18.3655C25.9132 18.6839 26.3358 19.092 26.6863 19.5697C27.2944 20.3957 27.6552 21.3113 27.8304 22.3065C27.9232 22.814 27.9541 23.3315 27.9232 23.849C27.9026 24.1774 27.8304 24.4959 27.7376 24.8144C27.6964 24.9537 27.5624 25.0731 27.4387 25.1826C26.6657 25.9091 25.7071 26.2972 24.6661 26.4962C23.9961 26.6256 23.3158 26.6853 22.6355 26.6953C22.584 26.6953 22.5427 26.6953 22.4912 26.6953C24.8516 24.3665 25.7999 21.5999 25.4082 18.3655Z" fill="#737373"/>
<path d="M6.89615 12.6228C6.13341 13.001 5.40158 13.3792 4.65945 13.7474C4.36054 12.4238 5.96849 8.48279 7.06107 7.91553C6.73124 9.48794 6.46324 11.0504 6.89615 12.6228Z" fill="#737373"/>
<path d="M23.9546 16.9225C23.9958 16.395 24.037 15.9074 24.0577 15.4098C24.0783 14.9221 24.0577 14.4345 24.0577 13.917C25.5625 15.2307 26.3974 16.8827 26.8716 18.7636C26.0676 17.8779 25.0472 17.3206 23.9546 16.9225Z" fill="#737373"/>
<path d="M11.5035 30.4272C12.2456 30.8651 12.9672 31.2831 13.6784 31.7011C12.6682 32.3579 9.78218 32.9053 7.81348 32.4972C7.90624 32.4674 7.95778 32.4475 8.00932 32.4276C8.69991 32.2186 9.3905 32.0096 10.0296 31.6613C10.5862 31.3627 11.05 30.9846 11.4314 30.4969C11.4623 30.4571 11.5035 30.4272 11.5035 30.4272Z" fill="#737373"/>
</svg>

<svg width="405" height="40" viewBox="0 0 405 40" fill="none" xmlns="http://www.w3.org/2000/svg"><path d="M212.33 10.05h4.96v-1.3h-4.96V7.42h5.36V6h-7.13v7h7.23v-1.42h-5.46v-1.53zM221.386 6h-1.76v7h6.72v-1.52h-4.96V6zm8.432 4.05h4.96v-1.3h-4.96V7.42h5.36V6h-7.13v7h7.23v-1.42h-5.46v-1.53zm7.207 1.01c0 1.33.62 1.94 1.94 1.94h4.47c1.32 0 1.94-.61 1.94-1.94V9.1h-4.09v1.3h2.38v.4c0 .6-.21.82-.82.82h-3.23c-.61 0-.82-.22-.82-.82V8.24c0-.6.21-.82.82-.82h3.17c.61 0 .82.22.82.82v.17h1.77v-.47c0-1.33-.62-1.94-1.94-1.94h-4.47c-1.32 0-1.94.61-1.94 1.94v3.12zM255.93 13l-3.74-7h-1.97l-3.74 7h1.92l.65-1.31h4.22l.65 1.31h2.01zm-4.77-5.58l1.45 2.94h-2.9l1.45-2.94zm12.825 3.31L258.945 6h-1.5v7h1.7V8.2l5.12 4.8h1.42V6h-1.7v4.73zM267.38 6v1.52h3.02V13h1.76V7.52h3.02V6h-7.8zm15.964 2.83c-.41 0-.56-.15-.56-.56V7.8c0-.43.15-.56.56-.56h2.79c.43 0 .56.13.56.56v.22h1.65V7.5c0-1.04-.47-1.5-1.5-1.5h-4.27c-1.03 0-1.5.46-1.5 1.5v.6c0 .65.21 1.06.63 1.25-.62.12-.93.57-.93 1.34v.81c0 1.04.47 1.5 1.5 1.5h4.87c1.03 0 1.5-.46 1.5-1.5V9.96h1.08V8.83h-6.38zm3.65 2.37c0 .43-.13.56-.56.56h-3.39c-.41 0-.56-.13-.56-.56v-.68c0-.43.15-.56.56-.56h3.95v1.24zM302.453 6h-7.03v7h1.77v-2.58h4.86V9h-4.86V7.5h5.26V6zm7.745 7c1.32 0 1.94-.61 1.94-1.94V6h-1.76v4.7c0 .6-.22.82-.82.82h-2.88c-.61 0-.82-.22-.82-.82V6h-1.76v5.06c0 1.33.62 1.94 1.94 1.94h4.16zm10.533-2.27L315.691 6h-1.5v7h1.7V8.2l5.12 4.8h1.42V6h-1.7v4.73zm9.655 2.27c1.56 0 2.4-.83 2.4-2.4V8.4c0-1.57-.84-2.4-2.4-2.4h-5.84v7h5.84zm-4.08-5.54h3.68c.69 0 1.04.35 1.04 1.04v2c0 .69-.35 1.04-1.04 1.04h-3.68V7.46zM343.157 13l-3.74-7h-1.97l-3.74 7h1.92l.65-1.31h4.22l.65 1.31h2.01zm-4.77-5.58l1.45 2.94h-2.9l1.45-2.94zm10.984 2.69L346.221 6h-1.55v7h1.66V8.52l2.53 3.26h.94l2.53-3.26V13h1.66V6h-1.48l-3.14 4.11zm8.51-.06h4.96v-1.3h-4.96V7.42h5.36V6h-7.13v7h7.23v-1.42h-5.46v-1.53zm13.836.68L366.677 6h-1.5v7h1.7V8.2l5.12 4.8h1.42V6h-1.7v4.73zM375.113 6v1.52h3.02V13h1.76V7.52h3.02V6h-7.8zm16.608 7l-3.74-7h-1.97l-3.74 7h1.92l.65-1.31h4.22l.65 1.31h2.01zm-4.77-5.58l1.45 2.94h-2.9l1.45-2.94zM394.996 6h-1.76v7h6.72v-1.52h-4.96V6zM210.61 33h1.78v-7h-1.78v7zm10.488-2.27l-5.04-4.73h-1.5v7h1.7v-4.8l5.12 4.8h1.42v-7h-1.7v4.73zm9.656 2.27c1.56 0 2.4-.83 2.4-2.4v-2.2c0-1.57-.84-2.4-2.4-2.4h-5.84v7h5.84zm-4.08-5.54h3.68c.69 0 1.04.35 1.04 1.04v2c0 .69-.35 1.04-1.04 1.04h-3.68v-4.08zM241.221 33c1.32 0 1.94-.61 1.94-1.94V26h-1.76v4.7c0 .6-.22.82-.82.82h-2.88c-.61 0-.82-.22-.82-.82V26h-1.76v5.06c0 1.33.62 1.94 1.94 1.94h4.16zm3.903-1.5c0 1.04.47 1.5 1.5 1.5h5.15c1.03 0 1.5-.46 1.5-1.5v-1.14c0-1.03-.45-1.43-1.5-1.5l-4.22-.28c-.43-.03-.56-.15-.56-.56v-.13c0-.41.15-.56.56-.56h3.31c.41 0 .56.15.56.56v.15h1.71v-.54c0-1.04-.47-1.5-1.5-1.5h-4.91c-1.03 0-1.5.46-1.5 1.5v.96c0 1.01.45 1.42 1.5 1.5l4.22.28c.43.04.56.15.56.56v.31c0 .41-.15.56-.56.56h-3.55c-.41 0-.56-.15-.56-.56v-.27h-1.71v.66zm9.645-5.5v1.52h3.02V33h1.76v-5.48h3.02V26h-7.8zm15.676 4.44c1.16-.03 1.66-.54 1.66-1.74v-.96c0-1.24-.51-1.74-1.74-1.74h-6.1v7h1.76v-2.44h2.54l1.83 2.44h2.01l-1.96-2.56zm-.79-3.16c.53 0 .69.17.69.7v.64c0 .53-.16.7-.69.7h-3.63v-2.04h3.63zm4.557 5.72h1.78v-7h-1.78v7zm12.838 0l-3.74-7h-1.97l-3.74 7h1.92l.65-1.31h4.22l.65 1.31h2.01zm-4.77-5.58l1.45 2.94h-2.9l1.45-2.94zm8.044-1.42h-1.76v7h6.72v-1.52h-4.96V26zm10.57 5.5c0 1.04.47 1.5 1.5 1.5h5.15c1.03 0 1.5-.46 1.5-1.5v-1.14c0-1.03-.45-1.43-1.5-1.5l-4.22-.28c-.43-.03-.56-.15-.56-.56v-.13c0-.41.15-.56.56-.56h3.31c.41 0 .56.15.56.56v.15h1.71v-.54c0-1.04-.47-1.5-1.5-1.5h-4.91c-1.03 0-1.5.46-1.5 1.5v.96c0 1.01.45 1.42 1.5 1.5l4.22.28c.43.04.56.15.56.56v.31c0 .41-.15.56-.56.56h-3.55c-.41 0-.56-.15-.56-.56v-.27h-1.71v.66zm16.492 1.5c1.32 0 1.94-.61 1.94-1.94v-3.12c0-1.33-.62-1.94-1.94-1.94h-4.46c-1.32 0-1.94.61-1.94 1.94v3.12c0 1.33.62 1.94 1.94 1.94h4.46zm-3.82-1.46c-.6 0-.82-.22-.82-.82v-2.44c0-.6.22-.82.82-.82h3.18c.61 0 .82.22.82.82v2.44c0 .6-.21.82-.82.82h-3.18zm9.547-5.54h-1.76v7h6.72v-1.52h-4.96V26zm12.624 7c1.32 0 1.94-.61 1.94-1.94V26h-1.76v4.7c0 .6-.22.82-.82.82h-2.88c-.61 0-.82-.22-.82-.82V26h-1.76v5.06c0 1.33.62 1.94 1.94 1.94h4.16zm3.573-7v1.52h3.02V33h1.76v-5.48h3.02V26h-7.8zm9.546 7h1.78v-7h-1.78v7zm10.258 0c1.32 0 1.94-.61 1.94-1.94v-3.12c0-1.33-.62-1.94-1.94-1.94h-4.46c-1.32 0-1.94.61-1.94 1.94v3.12c0 1.33.62 1.94 1.94 1.94h4.46zm-3.82-1.46c-.6 0-.82-.22-.82-.82v-2.44c0-.6.22-.82.82-.82h3.18c.61 0 .82.22.82.82v2.44c0 .6-.21.82-.82.82h-3.18zm14.327-.81l-5.04-4.73h-1.5v7h1.7v-4.8l5.12 4.8h1.42v-7h-1.7v4.73zm3.726.77c0 1.04.47 1.5 1.5 1.5h5.15c1.03 0 1.5-.46 1.5-1.5v-1.14c0-1.03-.45-1.43-1.5-1.5l-4.22-.28c-.43-.03-.56-.15-.56-.56v-.13c0-.41.15-.56.56-.56h3.31c.41 0 .56.15.56.56v.15h1.71v-.54c0-1.04-.47-1.5-1.5-1.5h-4.91c-1.03 0-1.5.46-1.5 1.5v.96c0 1.01.45 1.42 1.5 1.5l4.22.28c.43.04.56.15.56.56v.31c0 .41-.15.56-.56.56h-3.55c-.41 0-.56-.15-.56-.56v-.27h-1.71v.66zM33.2 5v7.541h11.198v20.097h8.694V12.54H64.29V5H33.199zm63.136 18.083c4.033-.434 5.795-2.527 5.795-7.146v-3.751c0-5.054-2.114-7.186-7.127-7.186H70.57v27.638h8.693v-8.884h7.87l6.266 8.884h9.907l-6.97-9.555zm-5.012-11.805c1.605 0 2.114.513 2.114 2.132v2.132c0 1.619-.509 2.132-2.114 2.132h-12.06v-6.396h12.06zm18.461 21.36h8.85V5h-8.85v27.638zm41.981 0c5.364 0 7.909-2.488 7.909-7.976V12.975c0-5.488-2.545-7.975-7.909-7.975h-17.7c-5.365 0-7.91 2.487-7.91 7.975v11.687c0 5.488 2.545 7.976 7.91 7.976h17.7zm-14.411-7.226c-1.879 0-2.506-.631-2.506-2.526v-8.134c0-1.895.627-2.527 2.506-2.527h11.121c1.841 0 2.506.632 2.506 2.527v8.133c0 1.896-.665 2.527-2.506 2.527h-11.121zM175.674 5h-8.693v27.638H194v-7.541h-18.326V5zm-161.027.01c.217.03.433.07.65.1 1.474.199 2.824.716 4.02 1.582 1.618 1.174 2.638 2.747 3.215 4.608.258.826.392 1.662.475 2.518.072.796.082 1.592.02 2.398a16.783 16.783 0 01-.969 4.438 20.808 20.808 0 01-2.875 5.245c-.093.12-.155.14-.31.08-1.03-.388-2.03-.826-2.917-1.473-.247-.18-.474-.388-.71-.567-.125-.09-.125-.17-.052-.299a21.878 21.878 0 001.917-4.2c.392-1.144.68-2.299.876-3.483.165-1.045.258-2.09.227-3.145-.031-1.502-.268-2.955-.835-4.349C16.77 7 15.822 5.826 14.359 5.08a.272.272 0 01-.072-.08c.123.01.237.01.36.01z" fill="#737373"/><path d="M10.566 19.35c.381.618.731 1.235 1.133 1.812 1.64 2.329 3.752 4.13 6.443 5.264.99.418 2.02.687 3.092.807.845.1 1.69.09 2.546.05a7.798 7.798 0 003.556-1.056c.01-.01.03-.01.082-.02-.082.26-.165.508-.247.747-.412 1.085-.969 2.09-1.783 2.956-1.072 1.144-2.381 1.86-3.938 2.18a9.24 9.24 0 01-2.958.118c-2.402-.288-4.556-1.164-6.432-2.647-1.577-1.244-2.824-2.756-3.896-4.418a28.382 28.382 0 01-1.66-2.986c-.02-.04-.02-.13.01-.16.96-.865 1.99-1.651 3.155-2.248.299-.14.608-.269.897-.398z" fill="#737373"/><path d="M1.382 28.656c-.227-.448-.474-.886-.68-1.333-.557-1.244-.753-2.548-.691-3.892.113-2.378.928-4.518 2.433-6.409 1.453-1.83 3.35-3.065 5.596-3.821a20.351 20.351 0 013.763-.856 20.015 20.015 0 013.453-.16c.721.04 1.443.14 2.164.22.103.01.124.06.113.149-.061.716-.082 1.433-.175 2.15-.093.716-.237 1.433-.35 2.15-.02.119-.072.139-.186.139-2.587.01-4.999.666-7.256 1.85a19.804 19.804 0 00-3.66 2.508 18.283 18.283 0 00-2.937 3.195c-.763 1.055-1.278 2.22-1.463 3.493-.031.19-.042.388-.052.587a.512.512 0 00-.072.03z" fill="#737373"/><path d="M10.411 30.597c-.299.18-.587.378-.897.547a6.78 6.78 0 01-2.607.717c-.99.07-1.928-.07-2.804-.538-.866-.467-1.433-1.174-1.793-2.06a.943.943 0 01-.062-.378c-.01-1.741.525-3.304 1.587-4.697.01-.02.041-.03.072-.06.134.647.32 1.254.588 1.831.732 1.622 1.824 2.946 3.422 3.842a5.958 5.958 0 002.484.756c-.01.01 0 .02.01.04zm-3.01-20.173c-.02-.507.01-1.005.124-1.493.196-.845.588-1.592 1.247-2.179A5.389 5.389 0 0111.7 5.398c1.422-.189 2.67.19 3.741 1.105.392.339.66.766.897 1.214.237.458.453.926.68 1.394-.01.01-.03.02-.041.03-.186-.07-.381-.15-.567-.22a10.132 10.132 0 00-2.618-.557c-1.474-.11-2.896.08-4.257.647a6.477 6.477 0 00-1.958 1.284c-.052.05-.083.11-.124.169-.02-.02-.041-.03-.052-.04zm18.007 7.942c.505.318.928.726 1.278 1.204.608.826.97 1.741 1.144 2.736.093.508.124 1.025.093 1.543a4.44 4.44 0 01-.185.965c-.042.14-.176.26-.3.369-.772.726-1.73 1.114-2.772 1.313-.67.13-1.35.19-2.03.2h-.145c2.36-2.33 3.309-5.096 2.917-8.33zM6.896 12.623c-.763.378-1.494.756-2.237 1.124-.298-1.323 1.31-5.264 2.402-5.831-.33 1.572-.598 3.134-.165 4.707zm17.059 4.299c.04-.527.082-1.015.103-1.512.02-.488 0-.976 0-1.493 1.505 1.314 2.34 2.966 2.814 4.847-.804-.886-1.825-1.443-2.917-1.841zM11.504 30.427c.742.438 1.463.856 2.174 1.274-1.01.657-3.896 1.204-5.865.796.093-.03.145-.05.196-.07.69-.208 1.381-.417 2.02-.766a4.349 4.349 0 001.402-1.164c.031-.04.073-.07.073-.07z" fill="#737373"/></svg>
